!!!OTL: Schloss in Oesterreich In Ostirreich da ligt ein Schloss,
!!!ARE: Europa, Mitteleuropa, Deutschland
!!!YOR: 1, S. 274
!!    1603 Handschrift (ca.)
!!!SCT: Q0024K
!!!YEM: Copyright 1995, estate of Helmut Schaffrath.
**kern
*ICvox
*Ivox
!! Irregular meter.
*MX
*k[f#]
*G:
{8g
4g
4g
=1
4f#
4b
4a
4g
=2
4f#
8r}
{8f#
=3
8f#
8f#
4g
4e
=4
4f#
4g
8r}
{8g
4g
4g
=5
4f#
4b
4a
4g
=6
4f#
8r}
{8f#
=7
8f#
8f#
4g
4e
=8
4f#
4g
8r}
{8g
=9
4a
8a
4a
8fn
8g
8a
=10
4b
8r
8b
4a
4g
=11
4f#
8r}
{8f#
=12
8f#
8f#
4g
4e
=13
4f#
4g
8r}
{8g
=14
4a
8a
4a
8fn
8g
8a
=15
4b
8r
8b
4a
4g
=16
4f#
8r}
{8f#
=17
8f#
8f#
4g
4e
=18
4f#
4g
8r}
==
!!!AGN: Ballade, Gefangenschaft, Hinrichtung, Tod, Vergeltung
!!!ONB: ESAC (Essen Associative Code) Database: BALLADE
!!!AMT: irregular
!!!AIN: vox
!!!EED: Helmut Schaffrath
!!!EEV: 1.0
*-
